X:111
T:Philip the Active's Adieu
M:3/4
L:1/8
Q:120
C:Trad. arr. J.T.
S:Davidsons Musical Miracles 1859
R:Waltz
N:Second measure slightly compressed
K:D
D2 DE FD | G2 GA BG | A2 AB c2 | d2 D4 | d2 dc B2 |
AB AG F2 | GF ED EC | D6 :||: F2 FG AF | E>D EF GA
| B3 c dB | A>B AG FE | D2 DE FB | Ac dA GF | GF ED
F/E/D/C/ | D6 :||: d2 c2 B2 | A2 AB =c2
| B2 A2 G2 | F2 FG A2 | G2 F2 E2
| D2 DE FA | GF ED C/D/E/F/ | D6 :||
